img/arrow_right.svg

<svg xmlns="http://www.w3.org/2000/svg" width="40" height="66" viewBox="0 0 40 66">
  <path fill="#87C849" d="M3.164,65.6266677 C2.05427162,65.6273655 1.06010509,64.9407324 0.66782258,63.9026515 C0.275540072,62.8645705 0.567148464,61.6920533 1.4,60.9586667 L33.264,32.898 L1.4,4.83666667 C0.294510063,3.86317274 0.187506137,2.17782333 1.16100004,1.07233337 C2.13449395,-0.0331565873 3.81984335,-0.140160548 4.92533333,0.833333333 L39.062,30.8966667 C39.6370805,31.4026805 39.9666514,32.1316591 39.9666514,32.8976667 C39.9666514,33.6636743 39.6370805,34.3926528 39.062,34.8986667 L4.92533333,64.9606667 C4.41866667,65.4073333 3.78933333,65.6266677 3.164,65.6266677 L3.164,65.6266677 Z"/>
</svg>

<svg height="66" viewBox="0 0 40 66" width="40" xmlns="http://www.w3.org/2000/svg"><path d="m3.164 65.6266677c-1.10972838.0006978-2.10389491-.6859353-2.49617742-1.7240162-.39228251-1.038081-.10067412-2.2105982.73217742-2.9439848l31.864-28.0606667-31.864-28.06133333c-1.10548994-.97349393-1.21249386-2.65884334-.23899996-3.7643333.97349391-1.10548996 2.65884331-1.21249392 3.76433329-.23900004l34.13666667 30.06333337c.5750805.5060138.9046514 1.2349924.9046514 2.001s-.3295709 1.4949861-.9046514 2.001l-34.13666667 30.062c-.50666666.4466666-1.136.666001-1.76133333.666001z" fill="#87c849"/></svg>
